packages/axiom-materials/src/icon_svgs/grid.svg

<svg height="16" viewBox="0 0 16 16" width="16" xmlns="http://www.w3.org/2000/svg"><path d="m3 3h4v4h-4zm6 0h4v4h-4zm-6 6h4v4h-4zm6 0h4v4h-4z" fill-rule="evenodd"/></svg>

<?xml version="1.0" encoding="UTF-8"?>
<svg width="16px" height="16px" viewBox="0 0 16 16" version="1.1" xmlns="http://www.w3.org/2000/svg" xmlns:xlink="http://www.w3.org/1999/xlink">
    <!-- Generator: sketchtool 43.2 (39069) - http://www.bohemiancoding.com/sketch -->
    <title>grid</title>
    <desc>Created with sketchtool.</desc>
    <defs></defs>
    <g id="Page-1" stroke="none" stroke-width="1" fill="none" fill-rule="evenodd">
        <g id="grid" fill="#000000">
            <path d="M3,3 L7,3 L7,7 L3,7 L3,3 Z M9,3 L13,3 L13,7 L9,7 L9,3 Z M3,9 L7,9 L7,13 L3,13 L3,9 Z M9,9 L13,9 L13,13 L9,13 L9,9 Z" id="Mask"></path>
        </g>
    </g>
</svg>
